packages/tokens/icons/user2/size24Px.svg

<svg viewBox="0 0 24 24" fill="none" xmlns="http://www.w3.org/2000/svg" width="1em" height="1em"><path d="M17.3128 11.4238C18.0989 8.4897 16.3577 5.47384 13.4237 4.68766C10.4896 3.90148 7.47376 5.64269 6.68758 8.57675C5.9014 11.5108 7.6426 14.5267 10.5767 15.3128" stroke="currentColor" stroke-linecap="round"/><path d="M5 12.5C3.61929 12.5 2.5 11.3807 2.5 10C2.5 8.61929 3.61929 7.5 5 7.5" stroke="currentColor" stroke-linecap="round"/><path d="M19 12.5C20.3807 12.5 21.5 11.3807 21.5 10C21.5 8.61929 20.3807 7.5 19 7.5" stroke="currentColor" stroke-linecap="round"/><path d="M9.5 12.5V12C9.5 10.8954 10.3954 10 11.5 10H12.5C13.6046 10 14.5 10.8954 14.5 12V12.5" stroke="currentColor" stroke-linecap="round" stroke-linejoin="round"/><circle cx="12" cy="8" r="1.5" stroke="currentColor"/><path d="M15.3021 14.2794L20.7579 16.0115L18.714 17.147C18.5508 17.2377 18.4162 17.3723 18.3255 17.5355L17.1684 19.6183L15.3021 14.2794Z" stroke="currentColor" stroke-linejoin="round"/></svg>

<svg xmlns="http://www.w3.org/2000/svg" fill="none" viewBox="0 0 24 24" width="1em" height="1em"><path stroke="currentColor" stroke-linecap="round" d="M17.313 11.424a5.5 5.5 0 1 0-6.736 3.889M5 12.5a2.5 2.5 0 0 1 0-5m14 5a2.5 2.5 0 0 0 0-5"/><path stroke="currentColor" stroke-linecap="round" stroke-linejoin="round" d="M9.5 12.5V12a2 2 0 0 1 2-2h1a2 2 0 0 1 2 2v.5"/><circle cx="12" cy="8" r="1.5" stroke="currentColor"/><path stroke="currentColor" stroke-linejoin="round" d="m15.302 14.28 5.456 1.732-2.044 1.135a1 1 0 0 0-.388.389l-1.158 2.082-1.866-5.339Z"/></svg>
